X:1
T:Title
%%score { ( 1 4 ) | ( 2 3 ) }
L:1/8
Q:1/4=100
M:4/4
K:Eb
V:1 treble nm="Grand Piano"
V:4 treble 
V:2 bass 
V:3 bass 
V:1
 [B,G]2 _G=G A3 G | [B,G]2 F2 [G,E]4 | [CA]2 EF G3 G | z2 =A2 z4 | [B,G]2 _G=G c3 B | %5
w: J.~S.~Fearis * * * *|||||
 [_DB]2 [CA]2 [CA]4 | [C=A]2 _A=A d3 c |[M:7/8] [Ec]2 B2 [B,DB]3 |[M:1/4] GA |[M:4/4] B6 z2 | %10
w: |||||
 B2 e2 [EGB]2 GG | F2 Bc B2 =A2 |[M:3/4] [DB]6 |[M:1/4] [DB][DA] |[M:4/4] G2 GG [GB]2 [Ge]2 | %15
w: |||||
 e4 ce[Ed][Ec] | [EB]2 E-[EA] [B,DG]3 [A,DF] | [G,B,E]6 z2 |] %18
w: |||
V:2
 z2 =A,B, C3 B, | z2 A,2 [E,,E,]4 | z2 C=B, _B,3 E | z2 .C2 [B,,F,]4 | z2 =A,B, E3 _D | %5
 [A,,E,]4 [A,,A,]2 [_G,,_G,]2 | z2 =B,[K:treble]C F3[K:bass] E |[M:7/8] z2 D2 B,,3 |[M:1/4] B,C | %9
[M:4/4] z2 A,>F, B,2 [B,,A,]2 | [E,E]2- [E,B,E]2 E,2 [E,B,E][E,B,E] | %11
 [F,B,D]2 [F,DF][F,EF] [F,DF]2 [F,CE]2 |[M:3/4] [B,,B,]6 |[M:1/4] [B,,F,][B,,B,] | %14
[M:4/4] [E,B,E]2 [E,B,E][E,B,E] [E,E]2 [E,_D]2 | [A,CA]4 [A,EA][K:bass][A,,CE][A,,B,][A,,A,] | %16
 [B,,G,]2 z C B,,3 B,, | E,6 z2 |] %18
V:3
 [E,,E,]8 | B,,4 z4 | [E,,E,]8 | [F,,F,]4 z4 | [E,,E,]8 | x8 | [F,,F,]8[K:treble][K:bass] | %7
[M:7/8] [B,,F,]- [B,,F,]3 z z2 |[M:1/4] x2 |[M:4/4] B,,6 z2 | G,2 z2 z4 | x8 |[M:3/4] x6 | %13
[M:1/4] x2 |[M:4/4] x8 | x5[K:bass] x3 | z2 B,,2 z4 | x8 |] %18
V:4
 x8 | x8 | x8 | [DF]2 z E [DB]4 | x8 | x8 | x8 |[M:7/8] x7 |[M:1/4] x2 | %9
[M:4/4] [B,G]2 F>D G2 [FB]2 | x8 | x8 |[M:3/4] x6 |[M:1/4] x2 |[M:4/4] x8 | x8 | z2 .[B,G]2 z4 | %17
 x8 |] %18

